X: 62
T: the Lincolnshire Polka
R: polka
Z: 2011 John Chambers <jc:trillian.mit.edu>
S: printed MS of unknown origin
F: http://www.h-p-t.com/AVI/Lincolnshire.mp3
M: 2/4
L: 1/16
K: D
|: "D"FGAF "G"GFGB | "D"A2de "(Bm)"f4 \
| "Em"efge "A7"B2c2 |1,3 "D"d2fe "(A7)"dBAG :|2,4 "D"d4 d4 :|
|: "G"d2c2 G2B2 | "D"B2AG FGA2 \
|1,3 "A7"A2G2 E2B2 | "D"B2AG FGA2 \
:|2,4 "A7"A2A2 B2c2 | "(D)"e2d2 "D"d4 :|

%%sep 1 1 500

